outputs/icons/date_time/clock_stop_round.svg

<svg xmlns="http://www.w3.org/2000/svg" width="1200" height="1200" fill="none"><path fill="#000" d="M584.97 351.045h-3c-20 0-36 16-36 36v236c0 17.5 9 34 24.5 43l150.435 90.26a301.6 301.6 0 0 1 54.64-50.395L620.97 614.045v-227c0-20-16-36-36-36"/><path fill="#000" fill-rule="evenodd" d="M950 1200c138.07 0 250-111.93 250-250s-111.93-250-250-250-250 111.93-250 250 111.93 250 250 250m100-350H850v200h200z"/><path fill="#000" d="M100 600c0-276 223.5-500 499.5-500C876 100 1100 324 1100 600c0 8.905-.235 17.76-.695 26.55-1.54 29.38-33.25 45.15-61.375 36.54-22.385-6.85-38.76-28.085-38.095-51.485q.165-5.784.165-11.605c0-221-179-400-400-400S200 379 200 600s179 400 400 400q5.826 0 11.615-.165c23.395-.665 44.625 15.705 51.475 38.08 8.6 28.115-7.155 59.8-36.515 61.365q-13.447.72-27.075.72c-276 0-499.5-224-499.5-500"/></svg>

<svg width="1200" height="1200" viewBox="0 0 1200 1200" fill="none" xmlns="http://www.w3.org/2000/svg"><path d="M584.97 351.045H581.97C561.97 351.045 545.97 367.045 545.97 387.045V623.045C545.97 640.545 554.97 657.045 570.47 666.045L720.905 756.305C736.95 737.34 755.31 720.4 775.545 705.91L620.97 614.045V387.045C620.97 367.045 604.97 351.045 584.97 351.045Z" fill="#1D1E23"/><path fill-rule="evenodd" d="M950 1200C1088.07 1200 1200 1088.07 1200 950C1200 811.93 1088.07 700 950 700C811.93 700 700 811.93 700 950C700 1088.07 811.93 1200 950 1200ZM1050 850H850V1050H1050V850Z" fill="#1D1E23"/><path d="M100 600C100 324 323.5 100 599.5 100C876 100 1100 324 1100 600C1100 608.905 1099.765 617.76 1099.305 626.55C1097.765 655.93 1066.055 671.7 1037.93 663.09C1015.545 656.24 999.17 635.005 999.835 611.605C999.945 607.75 1000 603.88 1000 600C1000 379 821 200 600 200C379 200 200 379 200 600C200 821 379 1000 600 1000C603.885 1000 607.755 999.945 611.615 999.835C635.01 999.17 656.24 1015.54 663.09 1037.915C671.69 1066.03 655.935 1097.715 626.575 1099.28C617.61 1099.76 608.585 1100 599.5 1100C323.5 1100 100 876 100 600Z" fill="#1D1E23"/></svg>
